pic/gitee-light.svg

<svg xmlns="http://www.w3.org/2000/svg" width="102" height="32" viewBox="0 0 102 32">
  <g fill="none">
    <circle cx="16" cy="16" r="16" fill="#C71D23"/>
    <path fill="#FFF" d="M24.0987698,14.2225143 L15.0124001,14.2225143 C14.5761102,14.2227213 14.2223953,14.5763435 14.2220741,15.0126334 L14.2215569,16.987852 C14.2212291,17.4242227 14.5748848,17.7780637 15.0112556,17.7781779 C15.0113267,17.778178 15.0113979,17.778178 15.0114691,17.7779645 L20.5432339,17.7779184 C20.9796046,17.7779082 21.3333559,18.1316536 21.3333595,18.5680243 C21.3333595,18.5680265 21.3333595,18.5680287 21.333353,18.5680309 L21.333353,18.7655387 L21.333353,18.7655387 L21.333353,18.9630705 C21.333353,20.2721827 20.2721078,21.3334278 18.9629956,21.3334278 L11.4562761,21.3334278 C11.019968,21.333406 10.6662671,20.9797148 10.6662333,20.5434067 L10.6660264,13.0374149 C10.6659249,11.7283027 11.7271408,10.6670284 13.036253,10.6669923 C13.0362747,10.6669923 13.0362965,10.6669923 13.0363183,10.6670576 L24.0965646,10.6670576 C24.5327439,10.6665674 24.886413,10.3131176 24.8871737,9.87693864 L24.8883988,7.90171985 C24.8891594,7.46534947 24.5356305,7.11138179 24.0992599,7.11111111 C24.0990965,7.11111111 24.0989332,7.11111111 24.0987698,7.11160088 L13.0370044,7.11160088 C9.76422389,7.11160088 7.11111111,9.76471368 7.11111111,13.0374942 L7.11111111,24.0987698 C7.11111111,24.5351405 7.46485949,24.8888889 7.90123022,24.8888889 L19.5557017,24.8888889 C22.5011397,24.8888889 24.8888889,22.5011396 24.8888889,19.5557016 L24.8888889,15.0126335 C24.8888889,14.5762627 24.5351405,14.2225143 24.0987698,14.2225143 Z"/>
    <path fill="#000" d="M46.0964768,28.0888889 C48.5122724,28.0888889 50.4408827,27.6195302 51.8823073,26.6808129 C53.3237322,25.7420956 54.0444444,24.5265769 54.0444444,23.0342571 C54.0444444,20.6272895 52.2406504,19.4238057 48.6330623,19.4238057 L48.6330623,19.4238057 L46.4105302,19.4238057 C45.6696864,19.4238057 45.1382113,19.3515967 44.8161051,19.2071787 C44.493999,19.0627606 44.3329462,18.8220639 44.3329462,18.4850884 C44.3329462,18.148113 44.4376305,17.8673001 44.6469995,17.6426498 C44.727526,17.5463711 44.8322106,17.5142781 44.9610529,17.5463711 C45.4764225,17.6907891 45.9676346,17.7629982 46.4346884,17.7629982 C48.0935344,17.7629982 49.4423537,17.3658485 50.4811457,16.5715492 C51.5199381,15.7772499 52.0393341,14.6018475 52.0393341,13.0453418 C52.0393341,12.4676696 51.9346494,11.9541832 51.7252808,11.5048825 C51.7091753,11.4727897 51.7132016,11.4366851 51.7373595,11.396569 C51.7615174,11.3564529 51.7977544,11.3363948 51.8460702,11.3363948 L51.8460702,11.3363948 L52.4017033,11.3363948 C52.8043358,11.3363948 53.1425474,11.2 53.4163374,10.9272103 C53.6901277,10.6544207 53.8270227,10.3174452 53.8270227,9.91628396 L53.8270227,9.91628396 L53.8270227,9.57930852 C53.8270227,9.19419369 53.6901277,8.86122988 53.4163374,8.58041698 C53.1425474,8.29960411 52.8043358,8.15919766 52.4017033,8.15919766 L52.4017033,8.15919766 L48.8504837,8.15919766 C48.7377466,8.15919766 48.6169568,8.1431512 48.4881145,8.1110583 C47.8600075,7.9185009 47.1755322,7.82222222 46.4346884,7.82222222 C45.3878437,7.82222222 44.4295777,8.00274478 43.5598914,8.3637899 C42.690205,8.72483502 41.9694927,9.30250725 41.3977545,10.0968065 C40.826016,10.8911058 40.5401469,11.8338348 40.5401469,12.9249934 C40.5401469,13.6791765 40.7173053,14.3691739 41.0716221,14.9949855 C41.4259388,15.620797 41.8688347,16.1262602 42.4003095,16.511375 C42.4325202,16.5274215 42.4486257,16.5514912 42.4486257,16.5835841 C42.4486257,16.6156769 42.4325202,16.6477698 42.4003095,16.6798628 C41.9493612,17.0007917 41.5869917,17.3899182 41.3132017,17.847242 C41.0394114,18.3045658 40.9025164,18.7739245 40.9025164,19.255318 C40.9025164,20.2822908 41.3132017,21.0765901 42.134572,21.6382159 C42.1667826,21.6542623 42.1828881,21.6823436 42.1828881,21.7224598 C42.1828881,21.7625759 42.1667826,21.7986804 42.134572,21.8307733 C41.4903601,22.1517023 41.0031744,22.5448403 40.6730159,23.0101874 C40.342857,23.4755344 40.1777778,23.9890208 40.1777778,24.5506466 C40.1777778,25.3529691 40.4515677,26.02692 40.999148,26.5724993 C41.5467286,27.1180786 42.2513354,27.5072051 43.1129694,27.7398786 C43.974603,27.9725521 44.9691056,28.0888889 46.0964768,28.0888889 Z M46.2222224,15.2888889 C45.6936938,15.2888889 45.2652654,15.1042357 44.936937,14.7349294 C44.6086085,14.3656231 44.4444444,13.8352363 44.4444444,13.1437692 C44.4444444,12.4680172 44.6086085,11.945488 44.936937,11.5761817 C45.2652654,11.2068754 45.6936938,11.0222222 46.2222224,11.0222222 C46.7507507,11.0222222 47.179179,11.2029466 47.5075075,11.5643953 C47.835836,11.9258441 48,12.452302 48,13.1437692 C48,13.8352363 47.835836,14.3656231 47.5075075,14.7349294 C47.179179,15.1042357 46.7507507,15.2888889 46.2222224,15.2888889 Z M46.7194335,25.6 C45.8043381,25.6 45.0778812,25.4687831 44.5400619,25.2063492 C44.002243,24.9439154 43.7333333,24.5502646 43.7333333,24.0253968 C43.7333333,23.6021164 43.9179579,23.2042328 44.2872068,22.831746 C44.3353696,22.7809524 44.4076141,22.7555556 44.5039397,22.7555556 L44.5039397,22.7555556 L44.5761842,22.7555556 C44.9775417,22.8402116 45.5876052,22.8825397 46.4063747,22.8825397 L46.4063747,22.8825397 L47.7308544,22.8825397 C48.4372438,22.8825397 48.954995,22.9587302 49.284108,23.1111111 C49.6132213,23.263492 49.7777778,23.5428571 49.7777778,23.9492064 C49.7777778,24.4232804 49.492814,24.8169312 48.9228864,25.1301587 C48.3529588,25.4433862 47.6184744,25.6 46.7194335,25.6 Z M58.3350429,6.4 C59.0529916,6.4 59.6433048,6.18577935 60.1059829,5.75733809 C60.568661,5.32889683 60.8,4.77686672 60.8,4.10124776 C60.8,3.42562884 60.568661,2.8694791 60.1059829,2.43279857 C59.6433048,1.99611804 59.0529916,1.77777778 58.3350429,1.77777778 C57.6011395,1.77777778 56.9988604,1.99611804 56.528205,2.43279857 C56.0575499,2.8694791 55.8222222,3.42562884 55.8222222,4.10124776 C55.8222222,4.77686672 56.0575499,5.32889683 56.528205,5.75733809 C56.9988604,6.18577935 57.6011395,6.4 58.3350429,6.4 Z M59.0536526,22.0444444 C59.4308166,22.0444444 59.756906,21.9056985 60.0319212,21.6282066 C60.3069368,21.3507147 60.4444444,21.0216886 60.4444444,20.6411283 L60.4444444,20.6411283 L60.4444444,9.58109397 C60.4444444,9.20053366 60.3069368,8.87150755 60.0319212,8.59401562 C59.756906,8.31652374 59.4308166,8.17777778 59.0536526,8.17777778 L59.0536526,8.17777778 L57.5685696,8.17777778 C57.1756906,8.17777778 56.8456724,8.31652374 56.5785145,8.59401562 C56.3113569,8.87150755 56.1777778,9.20053366 56.1777778,9.58109397 L56.1777778,9.58109397 L56.1777778,20.6411283 C56.1777778,21.0216886 56.3113569,21.3507147 56.5785145,21.6282066 C56.8456724,21.9056985 57.1756906,22.0444444 57.5685696,22.0444444 L57.5685696,22.0444444 L59.0536526,22.0444444 Z M69.3166942,22.7555556 C69.9157087,22.7555556 70.5068419,22.6991407 71.090093,22.5863111 C71.4684182,22.5218371 71.7600439,22.3122963 71.9649697,21.9576889 C72.1068416,21.7159111 72.1777778,21.4660741 72.1777778,21.2081778 C72.1777778,21.0953482 72.1698959,20.9744593 72.1541325,20.8455111 L72.1541325,20.8455111 L72.0595511,20.4586667 C71.9807335,20.1201778 71.7836892,19.8501926 71.4684182,19.6487111 C71.1531472,19.4472296 70.7984673,19.3384297 70.4043787,19.3223111 C69.3166942,19.2739556 68.7728518,18.5486222 68.7728518,17.1463111 L68.7728518,17.1463111 L68.7728518,11.9480889 C68.7728518,11.8352593 68.8280242,11.7788445 68.938369,11.7788445 L68.938369,11.7788445 L70.6171867,11.7788445 C70.9955119,11.7788445 71.3226054,11.6378074 71.5984673,11.3557333 C71.8743296,11.0736593 72.0122606,10.7392 72.0122606,10.3523556 L72.0122606,10.3523556 L72.0122606,9.74791112 C72.0122606,9.36106668 71.8743296,9.02660742 71.5984673,8.74453332 C71.3226054,8.46245926 70.9955119,8.32142221 70.6171867,8.32142221 L70.6171867,8.32142221 L68.938369,8.32142221 C68.8280242,8.32142221 68.7728518,8.2650074 68.7728518,8.15217778 L68.7728518,8.15217778 L68.7728518,6.04871113 C68.7728518,5.64574816 68.6349205,5.30725925 68.3590585,5.03324444 C68.0831966,4.75922963 67.7561028,4.62222222 67.377778,4.62222222 L67.377778,4.62222222 L66.573837,4.62222222 C66.1797484,4.62222222 65.8329503,4.75519999 65.5334427,5.02115555 C65.2339355,5.28711111 65.0526546,5.62157038 64.9896007,6.02453335 L64.9896007,6.02453335 L64.7295021,8.15217778 C64.7137384,8.2650074 64.6428026,8.3294815 64.5166941,8.34559999 L64.5166941,8.34559999 L63.9728517,8.39395556 C63.578763,8.42619259 63.2477287,8.59140742 62.9797483,8.88960001 C62.7117682,9.1877926 62.5777778,9.53837037 62.5777778,9.94133334 L62.5777778,9.94133334 L62.5777778,10.3523556 C62.5777778,10.7392 62.7157088,11.0736593 62.9915711,11.3557333 C63.267433,11.6378074 63.5945268,11.7788445 63.9728517,11.7788445 L63.9728517,11.7788445 L64.2802407,11.7788445 C64.3905859,11.7788445 64.4457583,11.8352593 64.4457583,11.9480889 L64.4457583,11.9480889 L64.4457583,17.1946667 C64.4457583,18.9515852 64.8398469,20.3176296 65.6280241,21.2928 C66.4162013,22.2679704 67.645758,22.7555556 69.3166942,22.7555556 Z M80.9585129,22.4 C82.2203071,22.4 83.4663287,22.1057404 84.696578,21.5172213 C85.0435715,21.3581621 85.2643853,21.0798085 85.35902,20.6821604 C85.4063372,20.554913 85.4299958,20.4276657 85.4299958,20.3004183 C85.4299958,20.0618294 85.35902,19.8232406 85.2170682,19.5846518 L85.2170682,19.5846518 L85.1460921,19.4414985 C84.9568231,19.1074741 84.6808054,18.8847912 84.3180397,18.7734497 C84.144543,18.725732 83.9710462,18.7018731 83.7975495,18.7018731 C83.5925082,18.7018731 83.3953529,18.7336849 83.2060836,18.7973086 C82.6698212,18.9881797 82.1177861,19.0836152 81.5499788,19.0836152 C79.6888327,19.0836152 78.561104,18.2485543 78.1667934,16.5784325 C78.1510211,16.5307147 78.1589074,16.4869734 78.1904519,16.4472086 C78.2219968,16.4074438 78.261428,16.3875614 78.3087452,16.3875614 L78.3087452,16.3875614 L84.8148713,16.3875614 C85.2249541,16.3875614 85.5877202,16.2563375 85.9031688,15.9938898 C86.218617,15.7314421 86.3842277,15.4013942 86.4,15.0037461 L86.4,15.0037461 L86.4,14.5504273 C86.4,12.5462811 85.8952825,10.9238771 84.885847,9.68321511 C83.8764119,8.44255319 82.4095761,7.82222222 80.4853402,7.82222222 C79.6494015,7.82222222 78.8410648,7.99321089 78.0603296,8.33518823 C77.2795943,8.67716553 76.5856078,9.15434321 75.9783693,9.76672122 C75.3711307,10.3790992 74.8821858,11.1505365 74.5115338,12.0810329 C74.1408817,13.0115294 73.9555556,14.0255319 73.9555556,15.1230406 C73.9555556,17.3657756 74.6140544,19.139286 75.9310521,20.4435716 C77.2480498,21.7478572 78.92387,22.4 80.9585129,22.4 Z M82.6576881,13.5111111 L78.3856341,13.5111111 C78.2766928,13.5111111 78.2222222,13.470443 78.2222222,13.3891067 C78.2222222,12.7221496 78.5257014,12.128395 79.1326598,11.6078431 C79.568425,11.2174292 80.0897866,11.0222222 80.696745,11.0222222 C81.397082,11.0222222 81.9223345,11.2296296 82.2725027,11.6444444 C82.6226712,12.0592592 82.8133183,12.6164125 82.8444444,13.3159041 L82.8444444,13.3159041 L82.8444444,13.340305 C82.8444444,13.4541757 82.7821922,13.5111111 82.6576881,13.5111111 L82.6576881,13.5111111 Z M95.8918462,22.4 C97.1536404,22.4 98.399662,22.1057404 99.6299113,21.5172213 C99.9769048,21.3581621 100.197719,21.0798085 100.292353,20.6821604 C100.339671,20.554913 100.363329,20.4276657 100.363329,20.3004183 C100.363329,20.0618294 100.292353,19.8232406 100.150402,19.5846518 L100.150402,19.5846518 L100.079425,19.4414985 C99.8901564,19.1074741 99.6141391,18.8847912 99.251373,18.7734497 C99.0778763,18.725732 98.9043799,18.7018731 98.7308832,18.7018731 C98.5258416,18.7018731 98.3286863,18.7336849 98.1394169,18.7973086 C97.6031545,18.9881797 97.0511198,19.0836152 96.4833125,19.0836152 C94.622166,19.0836152 93.4944377,18.2485543 93.1001267,16.5784325 C93.0843544,16.5307147 93.0922407,16.4869734 93.1237856,16.4472086 C93.1553302,16.4074438 93.1947614,16.3875614 93.2420785,16.3875614 L93.2420785,16.3875614 L99.7482046,16.3875614 C100.158288,16.3875614 100.521054,16.2563375 100.836502,15.9938898 C101.151951,15.7314421 101.317561,15.4013942 101.333333,15.0037461 L101.333333,15.0037461 L101.333333,14.5504273 C101.333333,12.5462811 100.828616,10.9238771 99.8191803,9.68321511 C98.8097452,8.44255319 97.3429094,7.82222222 95.4186735,7.82222222 C94.5827348,7.82222222 93.7743982,7.99321089 92.9936629,8.33518823 C92.212928,8.67716553 91.5189411,9.15434321 90.9117026,9.76672122 C90.3044644,10.3790992 89.8155191,11.1505365 89.4448671,12.0810329 C89.0742151,13.0115294 88.8888889,14.0255319 88.8888889,15.1230406 C88.8888889,17.3657756 89.5473877,19.139286 90.8643854,20.4435716 C92.1813831,21.7478572 93.8572034,22.4 95.8918462,22.4 Z M97.2354659,13.5111111 L92.9634118,13.5111111 C92.8544706,13.5111111 92.8,13.470443 92.8,13.3891067 C92.8,12.7221496 93.1034792,12.128395 93.7104375,11.6078431 C94.1462028,11.2174292 94.6675644,11.0222222 95.2745231,11.0222222 C95.9748598,11.0222222 96.5001123,11.2296296 96.8502808,11.6444444 C97.200449,12.0592592 97.3910961,12.6164125 97.4222222,13.3159041 L97.4222222,13.3159041 L97.4222222,13.340305 C97.4222222,13.4541757 97.35997,13.5111111 97.2354659,13.5111111 L97.2354659,13.5111111 Z"/>
  </g>
</svg>

<svg xmlns="http://www.w3.org/2000/svg" width="102" height="32" viewBox="0 0 102 32"><g fill="none"><circle cx="16" cy="16" r="16" fill="#C71D23"/><path fill="#FFF" d="M24.099 14.223h-9.087a.79.79 0 0 0-.79.79v1.975a.79.79 0 0 0 .79.79h5.531a.79.79 0 0 1 .79.79v.395a2.37 2.37 0 0 1-2.37 2.37h-7.507a.79.79 0 0 1-.79-.79v-7.506a2.37 2.37 0 0 1 2.37-2.37h11.06c.437 0 .79-.354.791-.79l.001-1.975a.79.79 0 0 0-.789-.79H13.037a5.926 5.926 0 0 0-5.926 5.925V24.1c0 .436.354.79.79.79h11.655a5.333 5.333 0 0 0 5.333-5.333v-4.543a.79.79 0 0 0-.79-.79z"/><path fill="#000" d="M46.096 28.089c2.416 0 4.345-.47 5.786-1.408 1.442-.939 2.162-2.154 2.162-3.647 0-2.407-1.803-3.61-5.41-3.61H46.41c-.741 0-1.273-.072-1.595-.217-.322-.144-.483-.385-.483-.722 0-.337.105-.618.314-.842.08-.097.185-.129.314-.097a5.462 5.462 0 0 0 1.474.217c1.659 0 3.007-.397 4.046-1.191 1.039-.795 1.558-1.97 1.558-3.527 0-.577-.104-1.09-.314-1.54-.016-.032-.012-.068.012-.108.025-.04.06-.06.11-.06h.555c.402 0 .74-.137 1.014-.41.274-.273.411-.61.411-1.01v-.338c0-.385-.137-.718-.41-.999a1.36 1.36 0 0 0-1.015-.42H48.85c-.112 0-.233-.017-.362-.049a6.977 6.977 0 0 0-2.053-.289c-1.047 0-2.005.18-2.875.542-.87.36-1.59.939-2.162 1.733-.572.794-.858 1.737-.858 2.828 0 .754.177 1.444.532 2.07a4.694 4.694 0 0 0 1.328 1.516c.033.016.049.04.049.073 0 .032-.016.064-.049.096-.45.32-.813.71-1.087 1.167-.274.458-.41.927-.41 1.408 0 1.027.41 1.822 1.232 2.383.032.016.048.044.048.084a.15.15 0 0 1-.048.109c-.645.32-1.132.714-1.462 1.18-.33.465-.495.978-.495 1.54 0 .802.274 1.476.821 2.021.548.546 1.252.935 2.114 1.168.862.233 1.856.349 2.983.349zm.126-12.8c-.528 0-.957-.185-1.285-.554-.328-.37-.493-.9-.493-1.591 0-.676.165-1.199.493-1.568.328-.37.757-.554 1.285-.554.529 0 .957.18 1.286.542.328.362.492.888.492 1.58 0 .691-.164 1.222-.492 1.59-.329.37-.757.555-1.286.555zM46.72 25.6c-.915 0-1.641-.131-2.179-.394-.538-.262-.807-.656-.807-1.18 0-.424.185-.822.554-1.194.048-.051.12-.076.217-.076h.072c.402.084 1.012.127 1.83.127h1.325c.706 0 1.224.076 1.553.228.33.152.494.432.494.838 0 .474-.285.868-.855 1.181-.57.313-1.305.47-2.204.47zM58.335 6.4c.718 0 1.308-.214 1.771-.643.463-.428.694-.98.694-1.656 0-.675-.231-1.232-.694-1.668-.463-.437-1.053-.655-1.771-.655-.734 0-1.336.218-1.807.655-.47.436-.706.993-.706 1.668 0 .676.236 1.228.706 1.656.47.429 1.073.643 1.807.643zm.719 15.644c.377 0 .703-.138.978-.416.275-.277.412-.606.412-.987V9.581c0-.38-.137-.71-.412-.987a1.33 1.33 0 0 0-.978-.416h-1.485a1.32 1.32 0 0 0-.99.416c-.268.278-.401.607-.401.987v11.06c0 .38.133.71.4.987.268.278.598.416.99.416h1.486zm10.263.712c.599 0 1.19-.057 1.773-.17.378-.064.67-.274.875-.628.142-.242.213-.492.213-.75 0-.113-.008-.234-.024-.362l-.094-.387a1.284 1.284 0 0 0-.592-.81 2.098 2.098 0 0 0-1.064-.327c-1.087-.048-1.631-.773-1.631-2.176v-5.198c0-.113.055-.17.165-.17h1.68c.378 0 .705-.14.98-.422.276-.282.414-.617.414-1.004v-.604c0-.387-.138-.721-.414-1.003a1.327 1.327 0 0 0-.98-.424h-1.68c-.11 0-.165-.056-.165-.169V6.05c0-.403-.138-.742-.414-1.016a1.345 1.345 0 0 0-.981-.41h-.804c-.394 0-.741.132-1.04.398-.3.266-.481.6-.544 1.004l-.26 2.127c-.016.113-.087.177-.213.194l-.544.048a1.45 1.45 0 0 0-.993.496 1.523 1.523 0 0 0-.402 1.051v.411c0 .387.138.722.414 1.004.275.282.603.423.98.423h.308c.11 0 .166.056.166.17v5.246c0 1.757.394 3.123 1.182 4.098.788.975 2.018 1.463 3.689 1.463zm11.642-.356c1.261 0 2.507-.294 3.738-.883.347-.159.567-.437.662-.835.047-.127.071-.254.071-.382a1.39 1.39 0 0 0-.213-.715l-.07-.144a1.39 1.39 0 0 0-.829-.668 1.955 1.955 0 0 0-.52-.071c-.205 0-.403.032-.592.095a4.903 4.903 0 0 1-1.656.287c-1.861 0-2.989-.835-3.383-2.506a.133.133 0 0 1 .023-.13.145.145 0 0 1 .119-.06h6.506c.41 0 .773-.132 1.088-.394.316-.263.481-.593.497-.99v-.454c0-2.004-.505-3.626-1.514-4.867-1.01-1.24-2.476-1.86-4.4-1.86-.837 0-1.645.17-2.426.512-.78.342-1.474.82-2.082 1.432-.607.612-1.096 1.384-1.466 2.314-.371.93-.556 1.945-.556 3.042 0 2.243.658 4.016 1.975 5.32 1.317 1.305 2.993 1.957 5.028 1.957zm1.699-8.889h-4.272c-.11 0-.164-.04-.164-.122 0-.667.304-1.26.91-1.781.436-.39.958-.586 1.565-.586.7 0 1.225.208 1.576.622.35.415.54.972.571 1.672v.024c0 .114-.062.171-.186.171zM95.892 22.4c1.262 0 2.508-.294 3.738-.883.347-.159.568-.437.662-.835.048-.127.071-.254.071-.382a1.39 1.39 0 0 0-.213-.715l-.07-.144a1.39 1.39 0 0 0-.829-.668 1.955 1.955 0 0 0-.52-.071c-.205 0-.402.032-.592.095a4.903 4.903 0 0 1-1.656.287c-1.86 0-2.989-.835-3.383-2.506a.133.133 0 0 1 .024-.13.145.145 0 0 1 .118-.06h6.506c.41 0 .773-.132 1.089-.394.315-.263.48-.593.496-.99v-.454c0-2.004-.504-3.626-1.514-4.867-1.01-1.24-2.476-1.86-4.4-1.86-.836 0-1.645.17-2.425.512-.781.342-1.475.82-2.082 1.432-.608.612-1.096 1.384-1.467 2.314-.37.93-.556 1.945-.556 3.042 0 2.243.658 4.016 1.975 5.32 1.317 1.305 2.993 1.957 5.028 1.957zm1.343-8.889h-4.272c-.109 0-.163-.04-.163-.122 0-.667.303-1.26.91-1.781.436-.39.958-.586 1.565-.586.7 0 1.225.208 1.575.622.35.415.541.972.572 1.672v.024c0 .114-.062.171-.187.171z"/></g></svg>
